X: 10
T: The Frieze Breeches
R: jig
M: 6/8
L: 1/8
K: Dmaj
FED EFG | Add cAG | A3 GAA | FAA EFG |FF/E/D EFG | A2 d cAG | FEF GEE | DED D2 :|d2 e fed | e2 d cAG | AFA BAG | FEF GED | d2 e fed | efd cAG | FEF GEE | DED D2 :|D3 =c3 | AdB =cAG | AB=c ded | ded dAF |D3 =c3 | AdB =cAG | F3 GEE | DED D2 :|d2 e fdd | add fed | c2 d ecA | fed ecA |d2 e fdd | add fed | faf gee | ded d2 :|fed edc | ded cAG | AFA BAG | FDF GED |[1 fed edc | ded cAG | F3 GEE | DED D2 :|[2 f3 g3 | afd cAG | F2 F GEE | DED D2 |]


Tune 34	Setting 12443

